usr/share/icons/biglinux-icons-material/scalable/apps/system-suspend.svg

<svg width="24" height="24" viewBox="0 0 24 24" fill="none" xmlns="http://www.w3.org/2000/svg">
<path fill-rule="evenodd" clip-rule="evenodd" d="M9.3775 0.123915C9.50824 0.125307 9.6332 0.108652 9.75239 0.073954C11.3187 -0.0286516 12.8849 -0.0244899 14.451 0.0864444C15.871 0.197086 17.2456 0.505183 18.5748 1.01073C20.7846 1.92048 22.2966 3.49843 23.1109 5.74457C23.5766 7.0969 23.8516 8.4875 23.9357 9.91634C24.0521 11.7106 24.0105 13.5009 23.8107 15.2872C23.6612 16.5427 23.3363 17.7501 22.836 18.9094C21.9081 20.9194 20.4044 22.3058 18.3249 23.0687C16.6398 23.6381 14.9069 23.9378 13.1264 23.968C11.1236 24.0721 9.14087 23.9222 7.17815 23.5183C3.56552 22.7136 1.337 20.5111 0.49263 16.9109C0.134306 15.2903 -0.0281463 13.6499 0.00527377 11.9897C-0.0347169 10.2244 0.152728 8.4841 0.567607 6.76878C1.45278 3.40263 3.58964 1.31674 6.97821 0.511116C7.7678 0.318078 8.56756 0.18901 9.3775 0.123915Z" fill="url(#paint0_radial_1_107)"/>
<path d="M12.0427 6.19187C11.8498 6.19187 11.6648 6.2685 11.5284 6.40489C11.392 6.54128 11.3154 6.72626 11.3154 6.91915C11.3154 7.11203 11.392 7.29702 11.5284 7.43341C11.6648 7.5698 11.8498 7.64642 12.0427 7.64642H17.5597L11.5285 13.6777C11.4268 13.7794 11.3576 13.909 11.3296 14.05C11.3015 14.1911 11.3159 14.3373 11.371 14.4701C11.426 14.603 11.5192 14.7166 11.6387 14.7965C11.7583 14.8764 11.8989 14.9191 12.0427 14.9191H19.3154C19.5083 14.9191 19.6933 14.8425 19.8297 14.7061C19.966 14.5697 20.0427 14.3848 20.0427 14.1919C20.0427 13.999 19.966 13.814 19.8297 13.6776C19.6933 13.5412 19.5083 13.4646 19.3154 13.4646H13.7983L19.8296 7.43335C19.9312 7.33163 20.0005 7.20205 20.0285 7.061C20.0565 6.91995 20.0421 6.77376 19.9871 6.64089C19.9321 6.50803 19.8389 6.39445 19.7193 6.31453C19.5998 6.23461 19.4592 6.19193 19.3154 6.19187H12.0427Z" fill="#FAFAFA"/>
<path d="M4.76994 12.0101C4.57705 12.0101 4.39207 12.0867 4.25568 12.2231C4.11929 12.3595 4.04266 12.5444 4.04266 12.7373C4.04266 12.9302 4.11929 13.1152 4.25568 13.2516C4.39207 13.388 4.57705 13.4646 4.76994 13.4646H7.37789L4.25573 16.5868C4.15408 16.6885 4.08486 16.8181 4.05683 16.9591C4.0288 17.1002 4.04321 17.2464 4.09824 17.3792C4.15327 17.5121 4.24645 17.6257 4.36601 17.7056C4.48556 17.7855 4.62613 17.8282 4.76994 17.8282H9.13357C9.32646 17.8282 9.51144 17.7516 9.64783 17.6152C9.78422 17.4788 9.86085 17.2938 9.86085 17.101C9.86085 16.9081 9.78422 16.7231 9.64783 16.5867C9.51144 16.4503 9.32646 16.3737 9.13357 16.3737H6.52562L9.64778 13.2515C9.74943 13.1498 9.81865 13.0202 9.84668 12.8792C9.87471 12.7381 9.8603 12.5919 9.80527 12.4591C9.75024 12.3262 9.65706 12.2126 9.5375 12.1327C9.41795 12.0528 9.27738 12.0101 9.13357 12.0101H4.76994Z" fill="#FAFAFA"/>
<defs>
<radialGradient id="paint0_radial_1_107" cx="0" cy="0" r="1" gradientUnits="userSpaceOnUse" gradientTransform="translate(12) rotate(90) scale(24)">
<stop stop-color="#D6BFFF"/>
<stop offset="1" stop-color="#4F3E6D"/>
</radialGradient>
</defs>
</svg>

<svg xmlns="http://www.w3.org/2000/svg" width="24" height="24" fill="none"><path fill="url(#a)" fill-rule="evenodd" d="M9.377.124c.131.001.256-.015.375-.05a34.502 34.502 0 0 1 4.699.012c1.42.111 2.795.42 4.124.925 2.21.91 3.722 2.487 4.536 4.734.466 1.352.74 2.743.825 4.171a30.475 30.475 0 0 1-.125 5.371 12.962 12.962 0 0 1-.975 3.622c-.928 2.01-2.432 3.397-4.511 4.16-1.685.57-3.418.869-5.199.899a23.372 23.372 0 0 1-5.948-.45c-3.612-.804-5.841-3.007-6.685-6.607a20.778 20.778 0 0 1-.488-4.921c-.04-1.766.148-3.506.563-5.221C1.453 3.403 3.59 1.317 6.978.51c.79-.193 1.59-.322 2.4-.387Z" clip-rule="evenodd"/><path fill="#FAFAFA" d="M12.043 6.192a.727.727 0 0 0 0 1.454h5.517l-6.031 6.032a.727.727 0 0 0 .514 1.241h7.272a.727.727 0 1 0 0-1.454h-5.517l6.032-6.032a.727.727 0 0 0-.515-1.241h-7.272ZM4.77 12.01a.727.727 0 1 0 0 1.455h2.608l-3.122 3.122a.727.727 0 0 0 .514 1.241h4.364a.727.727 0 1 0 0-1.454H6.526l3.122-3.122a.727.727 0 0 0-.514-1.242H4.77Z"/><defs><radialGradient id="a" cx="0" cy="0" r="1" gradientTransform="matrix(0 24 -24 0 12 0)" gradientUnits="userSpaceOnUse"><stop stop-color="#D6BFFF"/><stop offset="1" stop-color="#4F3E6D"/></radialGradient></defs></svg>
